X:244
T: Meeting of the Waters
N: O'Farrell's Pocket Companion v.3 (Sky ed. p.116)
N: "Irish"
M: 6/8
L: 1/8
Q: 180
K: G
d>c| BAG GED| D>EG G>AB| ccB/A/ ABG| dBG A2 A/B/|
ccB/A/ ABG| dBG A2 G/A/| B>AG GE>D| DEG c2B|
ABG GE<D | DEG G2 ||
